static/logos/launchdarkly-wordmark-color.svg

<svg width="100" height="16" viewBox="0 0 100 16" fill="none" xmlns="http://www.w3.org/2000/svg">
<g clip-path="url(#clip0_1_2198)">
<path d="M6.04976 11.9108V10.4459H1.71855V3.3758H0.0625V11.9745H6.04976V11.9108ZM10.1899 11.6561C10.5721 11.4013 10.8268 11.0191 11.0179 10.5733V11.9108H12.6103V7.77072C12.6103 7.32486 12.4829 6.94269 12.2918 6.56053C12.1007 6.24204 11.7186 5.92357 11.3364 5.79618C10.9542 5.6051 10.4447 5.47771 9.87142 5.47771C9.55295 5.47771 9.23448 5.54141 8.9797 5.54141C8.66123 5.6051 8.40645 5.6688 8.15167 5.79618C7.8969 5.92357 7.64212 5.98727 7.45104 6.17835L7.51473 7.64333C7.8969 7.38855 8.27906 7.19747 8.66123 7.07008C9.04339 6.94269 9.42556 6.879 9.87142 6.879C10.2536 6.879 10.5084 6.94269 10.6994 7.13378C10.8905 7.32486 11.0179 7.51594 11.0179 7.77072V8.21658H9.61664C8.78862 8.21658 8.08798 8.40766 7.64212 8.72613C7.13256 9.1083 6.94148 9.55416 6.94148 10.1911C6.94148 10.5733 7.00518 10.828 7.19626 11.1465C7.38734 11.465 7.57842 11.6561 7.8969 11.7835C8.21537 11.9745 8.53384 12.0382 8.916 12.0382C9.42556 12.0382 9.80772 11.9108 10.1899 11.6561ZM8.78862 10.5733C8.59753 10.4459 8.53384 10.2548 8.53384 10C8.53384 9.68155 8.66123 9.49046 8.916 9.36308C9.17078 9.23569 9.55295 9.1083 9.99881 9.1083H11.0179V9.36308C11.0179 9.55416 10.9542 9.74524 10.8268 10C10.6994 10.1911 10.5084 10.3822 10.3173 10.5733C10.0625 10.7007 9.80772 10.828 9.48925 10.828C9.17078 10.828 8.916 10.7007 8.78862 10.5733ZM17.5784 11.6561C17.9606 11.3376 18.2154 10.8917 18.4064 10.3822V11.9745H19.9988V5.73249H18.4064V8.66244C18.4064 9.1083 18.3428 9.42677 18.2154 9.74524C18.088 10.0637 17.8969 10.3185 17.6421 10.5096C17.3873 10.7007 17.0689 10.7643 16.7504 10.7643C16.3682 10.7643 16.1135 10.637 15.9224 10.4459C15.7313 10.2548 15.6039 9.93632 15.6039 9.55416V5.73249H14.0115V9.61785C14.0115 10.4459 14.2026 11.0191 14.5848 11.465C14.967 11.9108 15.4765 12.1019 16.1135 12.1019C16.7504 12.1019 17.1963 11.9745 17.5784 11.6561ZM23.3109 11.9108V8.98091C23.3109 8.53505 23.3746 8.21658 23.502 7.89811C23.6294 7.57964 23.8205 7.32486 24.0752 7.13378C24.33 6.94269 24.5848 6.879 24.9033 6.879C25.2854 6.879 25.5402 7.00639 25.7313 7.19747C25.9224 7.38855 26.0498 7.70702 26.0498 8.08919V11.9745H27.6421V8.08919C27.6421 7.26116 27.451 6.68792 27.0689 6.24204C26.6867 5.79618 26.1772 5.6051 25.5402 5.6051C24.967 5.6051 24.5211 5.79618 24.1389 6.05096C23.7568 6.36943 23.502 6.8153 23.3109 7.32486V5.73249H21.7186V11.9108H23.3109ZM33.0561 12.0382C33.2472 11.9745 33.4383 11.9745 33.6294 11.9108C33.8205 11.8472 33.9479 11.7835 34.1389 11.7198V10.1911C33.8842 10.3185 33.6294 10.3822 33.3109 10.5096C32.9924 10.5733 32.7377 10.637 32.4192 10.637C31.9733 10.637 31.6549 10.5733 31.3364 10.3822C31.0179 10.2548 30.8268 10 30.6994 9.74524C30.5721 9.49046 30.5084 9.17199 30.5084 8.78983C30.5084 8.40766 30.5721 8.15288 30.6994 7.83441C30.8268 7.57964 31.0816 7.32486 31.3364 7.19747C31.6549 7.00639 31.9733 6.94269 32.3555 6.94269C32.674 6.94269 32.9924 7.00639 33.2472 7.07008C33.5657 7.13378 33.8205 7.26117 34.0115 7.38855V5.85988C33.8205 5.79618 33.6294 5.73249 33.502 5.6688C33.3109 5.6051 33.1198 5.6051 32.9287 5.54141C32.7377 5.47771 32.4829 5.47771 32.2918 5.47771C31.5912 5.47771 30.9542 5.6051 30.4447 5.92357C29.9351 6.24204 29.4893 6.62422 29.2345 7.13378C28.916 7.64333 28.7886 8.21658 28.7886 8.85352C28.7886 9.49046 28.916 10.0637 29.2345 10.5096C29.5529 10.9554 29.9351 11.4013 30.4447 11.6561C30.9542 11.9108 31.5912 12.1019 32.2918 12.1019C32.6103 12.1019 32.865 12.1019 33.0561 12.0382ZM37.1326 11.9108V8.98091C37.1326 8.53505 37.1963 8.21658 37.3236 7.89811C37.451 7.57964 37.6421 7.32486 37.8969 7.13378C38.1517 6.94269 38.4064 6.879 38.7249 6.879C39.1071 6.879 39.3619 7.00639 39.5529 7.19747C39.744 7.38855 39.8714 7.70702 39.8714 8.08919V11.9745H41.4638V8.08919C41.4638 7.26116 41.2727 6.68792 40.8905 6.24204C40.5084 5.79618 39.9988 5.6051 39.3619 5.6051C38.7886 5.6051 38.3428 5.79618 37.9606 6.05096C37.5784 6.36943 37.3236 6.8153 37.1326 7.32486V3.3758H35.5402V11.9745H37.1326V11.9108ZM46.623 11.9108C47.5147 11.9108 48.3428 11.7198 48.9797 11.4013C49.6166 11.0191 50.1262 10.5733 50.4447 9.93632C50.7631 9.29938 50.9542 8.53505 50.9542 7.70702C50.9542 6.879 50.7631 6.11466 50.4447 5.47771C50.1262 4.84077 49.6166 4.33122 48.9797 3.94905C48.3428 3.56688 47.5784 3.4395 46.623 3.4395H43.3109V12.0382L46.623 11.9108ZM44.967 10.5096V4.84077H46.623C47.451 4.84077 48.088 5.09555 48.5338 5.6051C48.9797 6.11466 49.2345 6.81531 49.2345 7.70702C49.2345 8.59874 48.9797 9.29938 48.5338 9.80894C48.088 10.3185 47.3873 10.5733 46.623 10.5733H44.967V10.5096ZM55.0943 11.6561C55.4765 11.4013 55.7313 11.0191 55.9224 10.5733V11.9108H57.5147V7.77072C57.5147 7.32486 57.3873 6.94269 57.1963 6.56053C57.0052 6.24204 56.623 5.92357 56.2408 5.79618C55.8587 5.6688 55.3491 5.47771 54.7759 5.47771C54.4574 5.47771 54.1389 5.54141 53.8842 5.54141C53.5657 5.6051 53.3109 5.6688 53.0561 5.79618C52.8014 5.92357 52.5466 5.98727 52.3555 6.17835L52.4192 7.64333C52.8014 7.38855 53.1835 7.19747 53.5657 7.07008C53.9478 6.94269 54.33 6.879 54.7759 6.879C55.158 6.879 55.4128 6.94269 55.6039 7.13378C55.795 7.32486 55.9224 7.51594 55.9224 7.77072V8.21658H54.5211C53.6931 8.21658 52.9924 8.40766 52.5466 8.72613C52.037 9.1083 51.8459 9.55416 51.8459 10.1911C51.8459 10.5733 51.9096 10.828 52.1007 11.1465C52.2918 11.465 52.4829 11.6561 52.8014 11.7835C53.1198 11.9745 53.4383 12.0382 53.8205 12.0382C54.33 12.0382 54.7759 11.9108 55.0943 11.6561ZM53.6931 10.5733C53.502 10.4459 53.4383 10.2548 53.4383 10C53.4383 9.68155 53.5657 9.49046 53.8205 9.36308C54.0752 9.23569 54.4574 9.1083 54.9033 9.1083H55.9224V9.36308C55.9224 9.55416 55.8587 9.74524 55.7313 10C55.6039 10.1911 55.4128 10.3822 55.2217 10.5733C54.967 10.7007 54.7122 10.7643 54.4574 10.7643C54.1389 10.828 53.8842 10.7007 53.6931 10.5733ZM60.6994 11.9108V9.23569C60.6994 8.53505 60.8268 8.0255 61.1453 7.64333C61.4638 7.26116 61.8459 7.13378 62.3555 7.13378C62.6103 7.13378 62.8014 7.19747 62.9924 7.26116V5.73249C62.865 5.6688 62.8014 5.6688 62.674 5.6688C62.5466 5.6688 62.4829 5.6688 62.3555 5.6688C61.9733 5.6688 61.6549 5.79618 61.3364 6.05096C61.0816 6.30574 60.8268 6.68792 60.6994 7.19747V5.73249H59.1071V11.9108H60.6994ZM65.6038 11.9108V9.87263L66.1771 9.36308L68.0242 11.9108H69.935L67.2599 8.28027L69.8713 5.6688H67.8968L65.6038 7.83441V3.24841H64.0115V11.8472H65.6038V11.9108ZM72.4828 11.9108V3.3758H70.8905V11.9745H72.4828V11.9108ZM74.9669 14.2675C75.5401 14.2675 76.0497 14.1401 76.4319 13.8854C76.814 13.6306 77.1325 13.2484 77.3873 12.6115L80.2535 5.6688H78.5975L76.9414 10L75.158 5.73249H73.5019L76.0497 11.9108L75.9223 12.2293C75.8586 12.4204 75.7312 12.6115 75.6038 12.6752C75.4764 12.8026 75.2217 12.8026 74.9669 12.8026H73.6293V14.2038H74.9669V14.2675Z" fill="#1D1D1B"/>
<path d="M91.9113 15.2866C91.7839 15.2866 91.6565 15.2229 91.5929 15.0955C91.5292 14.9682 91.5292 14.8408 91.6565 14.7771L95.2871 9.80892L88.9814 12.3567C88.9177 12.3567 88.9177 12.4204 88.854 12.4204C88.7266 12.4204 88.5355 12.293 88.5355 12.1656C88.4718 12.0382 88.5355 11.8471 88.6629 11.7834L94.2043 8.53503L84.4591 7.96178C84.268 7.96178 84.1406 7.7707 84.1406 7.64331C84.1406 7.51592 84.268 7.32484 84.4591 7.32484L94.2043 6.75159L88.6629 3.50318C88.5355 3.43949 88.4718 3.24841 88.5355 3.12102C88.5992 2.99363 88.7266 2.86624 88.854 2.86624C88.9177 2.86624 88.9177 2.86624 88.9814 2.92994L95.2871 5.47771L91.6565 0.509554C91.5928 0.382165 91.5929 0.254776 91.5929 0.191082C91.6565 0.0636938 91.7839 0 91.9113 0C91.975 0 92.1024 0.0636949 92.1661 0.127389L99.3636 7.26115C99.4909 7.38853 99.4909 7.51592 99.4909 7.64331C99.4909 7.7707 99.4272 7.89809 99.3636 8.02548L92.1661 15.1592C92.0387 15.2229 91.975 15.2866 91.9113 15.2866Z" fill="#1D1D1B"/>
</g>
<defs>
<clipPath id="clip0_1_2198">
<rect width="100" height="15.2866" fill="white"/>
</clipPath>
</defs>
</svg>

<svg xmlns="http://www.w3.org/2000/svg" width="400" height="64" fill="none" viewBox="0 0 100 16"><g fill="#1D1D1B" clip-path="url(#a)"><path d="M6.05 11.91v-1.464H1.719v-7.07H.062v8.599H6.05v-.064Zm4.14-.254c.382-.255.637-.637.828-1.083v1.338h1.592V7.77c0-.446-.127-.828-.318-1.21a1.908 1.908 0 0 0-.956-.765c-.382-.19-.891-.318-1.465-.318-.318 0-.637.063-.891.063-.319.064-.574.128-.828.255-.255.128-.51.191-.701.382l.064 1.465A4.823 4.823 0 0 1 8.66 7.07a3.708 3.708 0 0 1 1.21-.191c.383 0 .637.064.828.255.191.19.319.382.319.637v.446H9.617c-.828 0-1.529.19-1.975.51-.51.381-.7.827-.7 1.464 0 .382.063.637.254.955.191.319.382.51.7.637.32.192.638.255 1.02.255.51 0 .892-.127 1.274-.382Zm-1.401-1.083c-.191-.127-.255-.318-.255-.573 0-.318.127-.51.382-.637a2.463 2.463 0 0 1 1.083-.255h1.019v.255c0 .191-.064.382-.191.637-.128.191-.319.382-.51.573-.255.128-.51.255-.828.255-.318 0-.573-.127-.7-.255Zm8.79 1.083c.382-.318.636-.764.827-1.274v1.593H20V5.732h-1.593v2.93c0 .446-.063.765-.19 1.083a1.74 1.74 0 0 1-.574.765c-.255.19-.573.254-.892.254-.382 0-.637-.127-.828-.318-.19-.191-.318-.51-.318-.892V5.732h-1.592v3.886c0 .828.19 1.401.573 1.847.382.446.891.637 1.528.637s1.083-.127 1.465-.446Zm5.732.255V8.98c0-.446.064-.764.191-1.083a1.74 1.74 0 0 1 .573-.764c.255-.191.51-.255.828-.255.382 0 .637.127.828.318.191.192.319.51.319.892v3.886h1.592V8.088c0-.828-.191-1.401-.573-1.847-.382-.446-.892-.637-1.529-.637-.573 0-1.019.191-1.401.446-.382.318-.637.764-.828 1.274V5.732h-1.592v6.179h1.592Zm9.745.127c.191-.063.382-.063.573-.127.192-.064.319-.127.51-.191V10.19c-.255.127-.51.191-.828.319-.319.063-.573.127-.892.127-.446 0-.764-.064-1.083-.255-.318-.127-.51-.382-.637-.637s-.19-.573-.19-.955.063-.637.19-.956c.128-.254.383-.51.637-.637.319-.19.637-.254 1.02-.254.318 0 .636.063.891.127.319.064.574.191.764.319v-1.53c-.19-.063-.382-.127-.509-.19-.191-.064-.382-.064-.573-.128-.191-.063-.446-.063-.637-.063-.7 0-1.338.127-1.847.446-.51.318-.956.7-1.21 1.21-.319.51-.446 1.083-.446 1.72 0 .636.127 1.21.445 1.656.319.445.701.891 1.21 1.146a4.16 4.16 0 0 0 1.848.446c.318 0 .573 0 .764-.064Zm4.077-.127V8.98c0-.446.063-.764.19-1.083.128-.318.32-.573.574-.764.255-.191.51-.255.828-.255.382 0 .637.127.828.318.191.192.318.51.318.892v3.886h1.593V8.088c0-.828-.191-1.401-.573-1.847-.383-.446-.892-.637-1.53-.637-.572 0-1.018.191-1.4.446-.383.318-.637.764-.828 1.274v-3.95H35.54v8.6h1.593v-.064Zm9.49 0c.892 0 1.72-.191 2.357-.51.637-.382 1.146-.828 1.465-1.465.318-.637.51-1.401.51-2.229 0-.828-.192-1.592-.51-2.23-.319-.636-.828-1.146-1.465-1.528-.637-.382-1.402-.51-2.357-.51h-3.312v8.6l3.312-.128Zm-1.656-1.401V4.84h1.656c.828 0 1.465.256 1.91.765.447.51.701 1.21.701 2.102 0 .892-.254 1.592-.7 2.102-.446.51-1.147.764-1.911.764h-1.656v-.063Zm10.127 1.146c.383-.255.637-.637.828-1.083v1.338h1.593V7.77c0-.446-.128-.828-.319-1.21a1.908 1.908 0 0 0-.955-.765c-.382-.127-.892-.318-1.465-.318-.319 0-.637.063-.892.063-.318.064-.573.128-.828.255-.255.128-.51.191-.7.382l.063 1.465a4.823 4.823 0 0 1 1.147-.573 3.708 3.708 0 0 1 1.21-.191c.382 0 .637.064.828.255.191.19.318.382.318.637v.446h-1.4c-.829 0-1.53.19-1.975.51-.51.381-.701.827-.701 1.464 0 .382.064.637.255.955.19.319.382.51.7.637.319.192.637.255 1.02.255.509 0 .955-.127 1.273-.382Zm-1.4-1.083c-.192-.127-.256-.318-.256-.573 0-.318.128-.51.383-.637a2.463 2.463 0 0 1 1.082-.255h1.02v.255c0 .191-.064.382-.192.637-.127.191-.318.382-.51.573-.254.128-.509.191-.764.191-.318.064-.573-.063-.764-.19Zm7.005 1.338V9.236c0-.701.128-1.21.446-1.593.319-.382.7-.51 1.21-.51.255 0 .446.064.637.128V5.732c-.127-.063-.19-.063-.318-.063h-.319c-.382 0-.7.127-1.019.382-.254.255-.51.637-.637 1.146V5.732h-1.592v6.179H60.7Zm4.905 0V9.873l.573-.51 1.847 2.548h1.911L67.26 8.28l2.611-2.612h-1.974l-2.293 2.165V3.248H64.01v8.6h1.593v.063Zm6.879 0V3.376H70.89v8.599h1.593v-.064Zm2.484 2.357c.573 0 1.083-.128 1.465-.383.382-.254.7-.637.955-1.274l2.867-6.942h-1.657L76.941 10l-1.783-4.268h-1.656l2.548 6.179-.128.318c-.063.191-.19.383-.318.446-.128.128-.382.128-.637.128h-1.338v1.4h1.338v.065ZM91.911 15.287a.35.35 0 0 1-.318-.192c-.064-.127-.064-.254.063-.318l3.631-4.968-6.306 2.548c-.063 0-.063.063-.127.063-.127 0-.319-.127-.319-.254a.306.306 0 0 1 .128-.383l5.541-3.248-9.745-.573c-.191 0-.318-.191-.318-.319 0-.127.127-.318.318-.318l9.745-.573-5.541-3.249a.306.306 0 0 1-.127-.382c.063-.127.19-.255.318-.255.064 0 .064 0 .127.064l6.306 2.548L91.657.51c-.064-.128-.064-.255-.064-.319A.35.35 0 0 1 91.91 0c.064 0 .191.064.255.127l7.198 7.134c.127.128.127.255.127.382 0 .128-.064.255-.127.382l-7.198 7.134c-.127.064-.191.128-.255.128Z"/></g><defs><clipPath id="a"><path fill="#fff" d="M0 0h100v15.287H0z"/></clipPath></defs></svg>
